icons/mobile/24/svg/find-in-page-24.svg

<svg width="24" height="24" viewBox="0 0 24 24" fill="none" xmlns="http://www.w3.org/2000/svg">
<path fill-rule="evenodd" clip-rule="evenodd" d="M12.6396 18.0304C11.8796 15.0304 14.54 12.37 17.54 13.13C18.86 13.46 19.9401 14.5202 20.3301 15.8302C20.69 17.0601 20.4501 18.2101 19.8701 19.13L21.8799 21.1398L21.8896 21.13C22.2296 21.47 22.2296 22.0302 21.8896 22.3702C21.5497 22.7099 20.9903 22.7099 20.6504 22.3702L18.6396 20.3605C17.7197 20.9403 16.5696 21.1804 15.3398 20.8204C14.03 20.4404 12.9697 19.3603 12.6396 18.0304ZM18.6797 17.5597C19.0895 15.8899 17.6102 14.4107 15.9404 14.8204C15.1606 15.0104 14.5105 15.6498 14.3203 16.4396C13.9103 18.1095 15.3897 19.5895 17.0596 19.1798C17.8396 18.9898 18.4897 18.3497 18.6797 17.5597Z" fill="black"/>
<path d="M11 1.00989H11.2305C11.8502 1.01001 12.44 1.24987 12.8799 1.68958L17.3096 6.11048C17.7495 6.55039 17.9999 7.14979 18 7.76966V11.7199C17.9701 11.7099 17.9303 11.6898 17.9004 11.6896C17.4404 11.5696 16.97 11.5099 16.5 11.5099C16.42 11.5099 16.33 11.5197 16.25 11.5197V7.49036H12C11.4501 7.49036 11.0002 7.04021 11 6.49036V2.75989C9.28001 2.72989 7.5601 2.83048 5.87012 3.11048C5.23012 3.21048 4.75 3.79009 4.75 4.46009V17.4796C4.75 18.1696 5.23012 18.7602 5.87012 18.8702C7.71006 19.1702 9.59003 19.2701 11.46 19.2101V19.2003C11.74 19.8502 12.1399 20.4203 12.6299 20.9103C11.9199 20.9603 11.21 21.0001 10.5 21.0001C8.86 21.0001 7.20984 20.8697 5.58984 20.5997C4.09005 20.3597 3.00016 19.0501 3 17.4904V4.46985C3.00008 2.92997 4.08996 1.62981 5.58984 1.38977C7.36984 1.08978 9.18 0.979892 11 1.00989Z" fill="black"/>
</svg>

<!-- This Source Code Form is subject to the terms of the Mozilla Public
   - License, v. 2.0. If a copy of the MPL was not distributed with this
   - file, You can obtain one at http://mozilla.org/MPL/2.0/. -->
<svg xmlns="http://www.w3.org/2000/svg" width="24" height="24" fill="none" viewBox="0 0 24 24">
    <path fill="#000" fill-rule="evenodd" d="M12.64 18.03c-.76-3 1.9-5.66 4.9-4.9 1.32.33 2.4 1.39 2.79 2.7.36 1.23.12 2.38-.46 3.3l2.01 2.01.01-.01c.34.34.34.9 0 1.24a.88.88 0 0 1-1.24 0l-2.01-2.01c-.92.58-2.07.82-3.3.46-1.31-.38-2.37-1.46-2.7-2.79m6.04-.47a2.252 2.252 0 0 0-2.74-2.74c-.78.19-1.43.83-1.62 1.62a2.253 2.253 0 0 0 2.74 2.74c.78-.19 1.43-.83 1.62-1.62" clip-rule="evenodd" />
    <path fill="#000" d="M11 1.01h.23c.62 0 1.21.24 1.65.68l4.43 4.42c.44.44.69 1.04.69 1.66v3.95c-.03-.01-.07-.03-.1-.03-.46-.12-.93-.18-1.4-.18-.08 0-.17.01-.25.01V7.49H12c-.55 0-1-.45-1-1V2.76c-1.72-.03-3.44.07-5.13.35-.64.1-1.12.68-1.12 1.35v13.02c0 .69.48 1.28 1.12 1.39 1.84.3 3.72.4 5.59.34v-.01c.28.65.68 1.22 1.17 1.71-.71.05-1.42.09-2.13.09-1.64 0-3.29-.13-4.91-.4C4.09 20.36 3 19.05 3 17.49V4.47c0-1.54 1.09-2.84 2.59-3.08 1.78-.3 3.59-.41 5.41-.38" />
</svg>
